!!!OTL: Die Geburt im Walde.
!!!OTL-incipit: Hier sitz' ich auf Rosen mit Veilchen bekraenzt.
!!!ODT: 1801
!!!ARE: Europa, Mitteleuropa, Deutschland
!!!YOR: 1, S. 72  Komponist: J.G.W. Schneider
!!    1801 gedruckt
!!!SCT: Q1007E
!!!TXL: @@DE
!!!YEM: Copyright 1995, estate of Helmut Schaffrath.
**kern	**text
*ICvox	*
*M3/4	*
*k[f#]	*
*G:	*
!LO:TX:a:t=Neuere Melodiegruppe.	!
{4d	Hier
=1	=1
4.g	ſitʒ'
8f#	ich
4g	auf
=2	=2
4.a	Ra-
8g	-ſen,
4a	mit
=3	=3
4.b	Veil-
8g	-chen
8ddL	be-
8bJ	.
=4	=4
4a	-kränʒt.
4r}	.
{8gL	Hier
8bJ	.
=5	=5
4.dd	will
8dd	ich
4dd	auch
=6	=6
4.dd	trin-
8cc	-ken,
4b	hier
=7	=7
4.cc	will
8cc	ich
4cc	auch
=8	=8
4.cc	trin-
8b}	-ken,
{4a	bis
=9	=9
4.b	lä-
8cc	-chelnd
4dd	am
=10	=10
4.dd	Him-
8cc	-mel
4b	mir
=11	=11
4.a	He-
8g	-ſpe-
4a	-rus
=12	=12
2g}	glänʒt.
==	==
!!!AGN: Studenten -, Trink - Lied
!! Vergleichsmelodie fuer die folgenden drei Varianten. Andere Melodie.
!!!ONB: ESAC (Essen Associative Code) Database: BALLADE
!!!AMT: simple triple
!!!AIN: vox
!!!EED: Helmut Schaffrath
!!!EEV: 1.0
!!!source: Deutsche Volkslieder mit ihren Melodien. Balladen. Herausgegeben vom Deutschen Volksliedarchiv. Erster Band Balladen. Berlin und Leipzig 1935.
!!!page: 72
!!!ENC: Anna Maria Matuszewska
!!!EEV: 2025/02/13
*-	*-
